img/benefits/group-5.svg

<svg width="30" height="30" viewBox="0 0 30 30" fill="none" xmlns="http://www.w3.org/2000/svg">
<path d="M15.007 30C17.0644 30 18.9982 29.6088 20.8085 28.8263C22.6188 28.0438 24.2148 26.9644 25.5964 25.5881C26.9781 24.2119 28.0574 22.6186 28.8345 20.8083C29.6115 18.998 30 17.0595 30 14.993C30 12.9356 29.6111 11.0018 28.8333 9.19149C28.0555 7.38118 26.9781 5.78751 25.601 4.41046C24.224 3.03341 22.628 1.95407 20.813 1.17244C18.998 0.390813 17.0619 0 15.0047 0C12.9395 0 11.0018 0.390813 9.19149 1.17244C7.38118 1.95407 5.78751 3.03341 4.41046 4.41046C3.03341 5.78751 1.95407 7.38118 1.17244 9.19149C0.390813 11.0018 0 12.9356 0 14.993C0 17.0595 0.39124 18.998 1.17372 20.8083C1.9562 22.6186 3.03554 24.2119 4.41173 25.5881C5.78793 26.9644 7.38118 28.0438 9.19149 28.8263C11.0018 29.6088 12.9403 30 15.007 30Z" fill="#0037FC"/>
<path d="M1.52539 8.85068C3.02507 9.97983 4.63835 10.9428 6.36522 11.7397C8.0921 12.5366 9.90436 13.1394 11.802 13.548C13.6997 13.9566 15.6542 14.1462 17.6655 14.1167C19.7448 14.0979 21.7552 13.835 23.6967 13.3277C25.6381 12.8205 27.4675 12.1125 29.1849 11.2037L28.9044 10.3637C27.2171 11.2644 25.4274 11.9645 23.5355 12.4639C21.6435 12.9633 19.6822 13.2324 17.6514 13.2712C14.6977 13.3195 11.8754 12.8811 9.18434 11.9563C6.49331 11.0314 4.05622 9.72989 1.87308 8.05176L1.52539 8.85068Z" fill="white"/>
<path d="M0.527344 16.8064C2.51737 18.4554 4.66876 19.7681 6.98152 20.7445C9.29427 21.721 11.6818 22.3607 14.1442 22.6637C16.6066 22.9668 19.0659 22.9268 21.5221 22.544C23.9783 22.1611 26.3401 21.4341 28.6076 20.3631L28.7541 19.3259C26.4774 20.4562 24.1021 21.2304 21.6283 21.6484C19.1545 22.0664 16.6744 22.1215 14.1881 21.8138C11.7017 21.5061 9.29802 20.8395 6.97692 19.8139C4.65581 18.7884 2.50962 17.4084 0.538337 15.6738L0.527344 16.8064Z" fill="white"/>
<path d="M7.58607 27.2876L8.65165 27.7555C8.45411 27.2275 8.28653 26.6979 8.1489 26.1667C8.01127 25.6355 7.88962 25.0934 7.78395 24.5403C7.15623 21.4926 7.07919 18.4971 7.55283 15.5539C8.02648 12.6107 8.96329 9.85321 10.3633 7.28148C11.7632 4.70975 13.5474 2.44438 15.7157 0.485365L14.6465 0.300781C12.5169 2.32388 10.7743 4.6397 9.41874 7.24824C8.06317 9.85679 7.16138 12.6437 6.71339 15.609C6.26539 18.5742 6.34435 21.6003 6.95025 24.6871C7.02797 25.128 7.12001 25.5677 7.22636 26.0061C7.33271 26.4446 7.45262 26.8717 7.58607 27.2876Z" fill="white"/>
<path d="M17.8102 29.1029L18.6784 28.8508C17.369 26.839 16.353 24.6557 15.6305 22.301C14.908 19.9464 14.5468 17.4851 14.5468 14.9173C14.5468 12.3684 14.9067 9.91884 15.6265 7.56859C16.3464 5.21834 17.36 3.04445 18.6674 1.04692L17.8851 0.671875C16.5465 2.73502 15.5122 4.97108 14.7823 7.38004C14.0524 9.78901 13.6875 12.3014 13.6875 14.9173C13.6875 17.5245 14.0476 20.0262 14.7678 22.4225C15.488 24.8187 16.5021 27.0456 17.8102 29.1029Z" fill="white"/>
<path d="M27.1191 23.1784L27.5384 22.4534C25.9065 21.5337 24.4629 20.369 23.2077 18.9592C21.9525 17.5494 20.9526 15.9558 20.2078 14.1783C19.4631 12.4008 19.0333 10.5023 18.9184 8.48281C18.8499 7.27253 18.9111 6.08207 19.102 4.91142C19.2929 3.74076 19.5979 2.6172 20.017 1.54071L19.2091 1.271C18.776 2.38821 18.4613 3.55869 18.265 4.78244C18.0686 6.00618 17.9992 7.25438 18.0566 8.52704C18.1623 10.6359 18.6073 12.6216 19.3918 14.4842C20.1762 16.3468 21.2292 18.0183 22.5508 19.4985C23.8724 20.9788 25.3951 22.2054 27.1191 23.1784Z" fill="white"/>
<path d="M8.01688 14.0904C8.55171 14.0904 9.00981 13.8997 9.39116 13.5184C9.77252 13.137 9.96319 12.6734 9.96319 12.1275C9.96319 11.6018 9.77252 11.1487 9.39116 10.7681C9.00981 10.3876 8.55171 10.1973 8.01688 10.1973C7.48188 10.1973 7.0237 10.3876 6.64234 10.7681C6.26099 11.1487 6.07031 11.6018 6.07031 12.1275C6.07031 12.6734 6.26099 13.137 6.64234 13.5184C7.0237 13.8997 7.48188 14.0904 8.01688 14.0904Z" fill="white"/>
<path d="M19.7676 15.5926C20.2545 15.5926 20.6715 15.4163 21.0186 15.0636C21.3657 14.711 21.5393 14.2904 21.5393 13.802C21.5393 13.3167 21.3657 12.9001 21.0186 12.5522C20.6715 12.2042 20.2545 12.0303 19.7676 12.0303C19.2792 12.0303 18.8592 12.2042 18.5073 12.5522C18.1554 12.9001 17.9795 13.3167 17.9795 13.802C17.9795 14.2904 18.1554 14.711 18.5073 15.0636C18.8592 15.4163 19.2792 15.5926 19.7676 15.5926Z" fill="white"/>
<path d="M15.6141 24.389C16.1492 24.389 16.6023 24.203 16.9735 23.8309C17.3447 23.4589 17.5303 23.0053 17.5303 22.4703C17.5303 21.9353 17.3447 21.4822 16.9735 21.111C16.6023 20.7398 16.1492 20.5542 15.6141 20.5542C15.0682 20.5542 14.6097 20.7398 14.2385 21.111C13.8672 21.4822 13.6816 21.9353 13.6816 22.4703C13.6816 23.0053 13.8672 23.4589 14.2385 23.8309C14.6097 24.203 15.0682 24.389 15.6141 24.389Z" fill="white"/>
</svg>

<svg width="30" height="30" fill="none" xmlns="http://www.w3.org/2000/svg"><path d="M15.007 30c2.057 0 3.991-.391 5.801-1.174a15.35 15.35 0 004.788-3.238 15.073 15.073 0 003.238-4.78C29.611 18.998 30 17.06 30 14.993c0-2.057-.389-3.991-1.167-5.802a15.216 15.216 0 00-8.02-8.02C18.998.392 17.062.001 15.005.001c-2.066 0-4.003.39-5.814 1.172a15.24 15.24 0 00-4.78 3.238 15.24 15.24 0 00-3.239 4.781C.391 11.001 0 12.936 0 14.993c0 2.066.391 4.005 1.174 5.815a15.254 15.254 0 003.238 4.78 15.252 15.252 0 004.78 3.238C11.001 29.61 12.94 30 15.006 30z" fill="#0037FC"/><path d="M1.525 8.85a26.436 26.436 0 004.84 2.89 25.96 25.96 0 0011.3 2.377c2.08-.02 4.09-.282 6.032-.79a25.434 25.434 0 005.488-2.123l-.28-.84A24.798 24.798 0 0117.65 13.27c-2.953.048-5.776-.39-8.467-1.315-2.69-.925-5.128-2.226-7.31-3.904l-.349.799zm-.998 7.956a25.81 25.81 0 006.455 3.938 26.72 26.72 0 0014.54 1.8 25.822 25.822 0 007.086-2.18l.146-1.038a25.572 25.572 0 01-21.777.488 25.007 25.007 0 01-6.439-4.14l-.01 1.132z" fill="#fff"/><path d="M7.586 27.288l1.066.468a15.947 15.947 0 01-.503-1.59 25.746 25.746 0 01-.365-1.626c-.628-3.047-.705-6.043-.231-8.986.473-2.943 1.41-5.7 2.81-8.273A25.567 25.567 0 0115.716.485l-1.07-.184A26.147 26.147 0 009.42 7.248a26.628 26.628 0 00-2.706 8.361c-.448 2.965-.369 5.991.237 9.078.078.441.17.88.276 1.32.107.438.227.865.36 1.28zm10.224 1.815l.868-.252a25.83 25.83 0 01-3.048-6.55c-.722-2.355-1.083-4.816-1.083-7.384 0-2.549.36-4.998 1.08-7.348a25.452 25.452 0 013.04-6.522l-.782-.375a26.23 26.23 0 00-3.103 6.708 25.85 25.85 0 00-1.095 7.537c0 2.607.36 5.11 1.08 7.505a26.716 26.716 0 003.043 6.68z" fill="#fff"/><path d="M27.12 23.178l.418-.725a16.818 16.818 0 01-4.33-3.494 17.032 17.032 0 01-3-4.78c-.745-1.778-1.175-3.677-1.29-5.696a16.593 16.593 0 011.099-6.942l-.808-.27a17.24 17.24 0 00-.944 3.511 18.353 18.353 0 00-.208 3.745c.105 2.109.55 4.095 1.335 5.957a17.906 17.906 0 007.727 8.694zM8.017 14.09c.535 0 .993-.19 1.374-.572a1.89 1.89 0 00.572-1.39c0-.526-.19-.98-.572-1.36-.381-.38-.84-.57-1.374-.57-.535 0-.993.19-1.375.57-.381.38-.572.834-.572 1.36 0 .545.191 1.009.572 1.39.382.382.84.572 1.375.572z" fill="#fff"/><path d="M19.768 15.593a1.69 1.69 0 001.25-.53c.348-.352.521-.773.521-1.261 0-.485-.173-.902-.52-1.25a1.704 1.704 0 00-1.251-.522 1.73 1.73 0 00-1.26.522 1.695 1.695 0 00-.528 1.25c0 .488.175.909.527 1.262a1.72 1.72 0 001.26.529zm-4.154 8.796a1.85 1.85 0 001.36-.558c.37-.372.556-.826.556-1.36a1.85 1.85 0 00-.556-1.36 1.85 1.85 0 00-1.36-.557c-.546 0-1.004.186-1.376.557a1.849 1.849 0 00-.556 1.36c0 .534.185.988.556 1.36.372.372.83.558 1.376.558z" fill="#fff"/></svg>
